X:1
T: Symphony No. 7 in A Major
T:3rd Movement
T:Ludwig van Beethoven
T:Adp. from arrangements by Ernst Pauer and Franz Liszt
%%score { ( 1 4 5 ) | ( 2 3 ) }
L:1/8
Q:3/4=118
M:3/4
K:F
V:1 treble nm="Piano"
V:4 treble 
V:5 treble 
V:2 bass 
V:3 bass 
V:1
"^Presto" [A,F]2 |{/F} [A,A]2 F z [A,FA]2 | [CAc]2 [CFA] z [Ac]2 |!p! .[Af]2 .[Af]2 .[ce]2 | %4
 .[Bd]2 .[Bd]2 .[Ac]2 | .[GB]2 .[GB]2 .[FA]2 | [EG]6 | .[eg]2 .[eg]2 .[df]2 | %8
 .[ce]2 .[ce]2 .[Bd]2 | .[Ac]2 .[Ac]2 .[GB]2 | [FA]6 | .[EG]2 .[EG]2 .F2 | [EB]4 [FA]2 | %13
 .[CEG]2!mp! .[CEG]2 .[CF]2 |!mf! [EB]4 [FA]2 | [D^Gd]4 [EA^c]2 |!ff! [^G=Bf]4!f! [Ae]2 | %17
 ^g/a/g/a/ g/a/g/a/ g/a/^f/g/ | .[A^ca]2 .e2 .c2 | d/e/d/e/ d/e/d/e/ d/e/^c/d/ | .[A^c]2 .e2 .a2 | %21
 ^g/a/g/a/ g/a/g/a/ g/a/^f/g/ | .[A^ca]2 .[Ee]2 .[^Cc]2 | .A2 .E2 .^C2 | .A,2 z2 ::[K:bass] A,,2 | %26
{/A,,} ^C,2 A,, z[K:treble] A,2 |!ff!{/A,} ^C2!f! A, z z2 | z2 z2 a2 |!ff!{/a} ^c'2!f! a z .[ea]2 | %30
 .[^f=b]2 .[fb]2 .[ea]2 | [^gd']4!p! [a^c']2 | .[^f=b]2 .[fb]2 .[ea]2 | [^gd']4 [a^c']2 | %34
!pp! [^gd']4 [a^c']2 |!pp! [^gd']4 [a^c']2 | [^gd']4 [a^c']2 | [^gd']4 [a^c']2 | %38
!pp! [^c=g]4 [d^f]2 | [^c=g]4 [d^f]2 | [^c=g]4 [d^f]2 | [^c=g]4 [d^f]2 | [DF]6 | [DF]6 | %44
 [DF]4!ff! .[d=b]2 | [fd']2 [d=b] z!p! .[gc']2 | .[ad']2 .[ad']2 .[gc']2 | [=bf']4 [c'e']2 | %48
 .[ad']2 .[ad']2 .[gc']2 | [=bf']4 [c'e']2 |!pp! [=bf']4 [c'e']2 | [=bf']4 [c'e']2 | %52
 [=bf']4 [c'e']2 | [=bf']4 [c'e']2 |!pp! [e_b]4 [fa]2 | [e_b]4 [fa]2 | [e_b]4 [fa]2 | %57
 [e_b]4 [fa]2 | [C_E]6 | [C_E]6 | [C_E]4 [ca]2 | [_ec']2 [ca] z!p! .[Bd]2 | .[B_e]2 .[Be]2 .[Bd]2 | %63
 [Bg]4 [Bf]2 | .[B_e]2 .[Be]2 .[Bd]2 | g4 f2 | [Fdf]2 [Bd] z f2 | .b2 .b2 .a2 | .g2 .g2 .f2 | %69
 ._e2 .e2 .d2 | .c2 z2 z2 | .c'2 .c'2 .b2 | .a2 .a2 .g2 | .f2 .f2 ._e2 | .d2 z2 z2 | %75
 .[bd']2 .[bd']2 .[ac']2 | .[gb]2!mp! .[gb]2 .[fa]2 | .[_eg]2 .[eg]2 .[df]2 | [c_e]2 z4 | %79
 .[ac']2 .[ac']2 .[gb]2 | .[fa]2 .[fa]2 .[_eg]2 | .[df]2 .[df]2 .[c_e]2 | [Bd]2 z2 z2 | f6- | f6- | %85
 f6- | f2!mf! [=eg]2 .[eg]2 | [eg]6- | [eg-]6 | g4 f2 |{/f} [Aa]2 f z [Afa]2 | %91
{/a} [cac']2 [fa] z [cac']2 |!8va(! [faf']6- | [faf']6- | [f-af'-]6 | [ff']2 [gbg']2 .[gbg']2 | %96
 [gbg']6- | [gbg']6- | [gbg']6- | [gbg']2 [ac'a']2 [ac'a']2!8va)! |!p! z2 .[Aa]2 .[Bb]2 | %101
 .[cc']2 .[cc']2 .[dd']2 | .[ee']2 .[ee']2 .[ff']2 | .[gg']2 [cg]2 [cg]2 | z2 .[Bb]2 .[cc']2 | %105
 .[dd']2 .[dd']2 .[ee']2 | .[ff']2 .[ff']2 .[gg']2 | .[aa']2 [fa]2 [fa]2 |!p! .[EG]2 .[EG]2 .F2 | %109
 [EB]4 [FA]2 | .[cg]2 .[cg]2 .[cf]2 | [eb]4 [fa]2 | .[CEG]2 .[CEG]2!mp! .[CF]2 | %113
 [CEB]4!mf! [CFA]2 |!f! d4 c2 |!ff! [F=Bf]4!f! [ce]2 |!ff! [Aca]4!f! [Gcg]2 | %117
!ff! [=Bf=b]4!f! [cec']2 | =b/c'/b/c'/ b/c'/b/c'/ b/c'/a/b/ | .c'2 .g2 .e2 | %120
 f/g/f/g/ f/g/f/g/ f/g/e/f/ | .e2 .g2 .c'2 | =b/c'/b/c'/ b/c'/!mp!b/c'/ b/c'/a/b/ | .c'2 .g2 .e2 | %124
 =b/c'/b/c'/ b/c'/b/!mf!c'/ b/c'/a/b/ | .c'2 .g2 .e2 | %126
!ff!{/e} e'/f'/e'/f'/ e'/f'/e'/f'/ e'/f'/d'/e'/ | .[ff']2 .c'2 .a2 | %128
 b/c'/b/c'/ b/c'/b/c'/ b/c'/a/b/ | .[af']2 .c'2 .f'2 |{/e} e'/f'/e'/f'/ e'/f'/e'/f'/ e'/f'/d'/e'/ | %131
 .[ff']2 .c'2 .a2 |{/e} e'/f'/e'/f'/ e'/f'/e'/f'/ e'/f'/d'/e'/ | .[ff']2 .c'2 .a2 | %134
{/e} e'/f'/e'/f'/ e'/f'/e'/f'/ e'/f'/d'/e'/ | .[ff']2 .[cc']2 .[Aa]2 | .[Ff]2 .[Cc]2 .[A,A]2 | %137
 .[F,F]2[K:bass] .C,2 .F,,2 |{/F,,} A,,2!f! F,, z .F,2 |{/F,} A,2 F, z[K:treble] .F2 | %140
{/F} A2 F z .f2 |{/f} a2 f z .[Ff]2 |!8va(!{/f'} [aa']2 f' z .[ff']2 |{/f'} [aa']2 f' z .[ff']2 | %144
{/f'} [aa']2 f' z .[ff']2 |{/f'} [aa']2 f' z .[ff']2 |!ff! [aa']6- | [aa']6- | [aa']6- |1 %149
 [aa']6- :|2!ff! [aa']6!8va)! ||[K:D][Q:1/4=228]"^Assai meno Presto ( . = 76)" [A,A-]6 | A6 | %153
 [A,A-]6 | A6- | A6- | A6- | A4- A^G | A4- A^G | A6- | A6- | A6- | A6- | A6- | A6- | A4 F2 | %166
 A2 G2 EA | a6- | [ad'-]4 d'c' | d'2 z2 z2 | d'4- d'c' | d'2 z2 z2 | [df]2 [eg]2 .[df]2 | %173
 [ce]2 z2 z2 | [Aa]4- [Aa][^G^g] | [ce]4- [ce][^B^d] | e4- e^d | [ce]4- [ce][^B^d] | e4- e^d | %179
 [ce]4 [=df]2 | [fa]2 [eg]2 .[ce]2 | d2 z2 f2 | a2 f2 d[Aa] |:!p! [Afa]6- | [Afa]4 [Bgb]2 | %185
 [Geg]6- | [Geg]4 [Afa]2 | [Fdf]6 |{/gfe} [Fdf]2 [fa]2 [eg]2 | [df]6 | [ce]2 z2 z2 | [Afa]6 | %192
{/ba^g} [fa]2 [cac']2 [B=gb]2 | [Afa]4 [Geg]2- | [Geg]2 [Bgb]2 [Afa]2 | [Geg]2 [Fdf]2 [Afa]2 | %196
!mp!!>(! [dfd']2 [Afa]2!p! [Fdf]2!>)! | x6 |!<(! z2!<)!!mp! [fa-]2!>(! [fa]!p!^g!>)! | [ce]6 | %200
 z2 [fa-]2 [fa]^g | [ce]2 z2 z2 | [Aa]6- | [Aa]2 [^DFAB]4 | [^DFAB]4 [DFAB]2 | z2 [E=G_B^c]4 | %206
 [EG_Bc]4 [EGBc]2 | z2!<(! [ce=gc']4 | [ce=gc']4!<)!!ff! .[cegc']2 | %209
!ff!!8va(! [dfad']4- [dfad'][cegac'] | .[dfad']2 z2 z2 | [dfad']4- [dfad'][cegac'] | %212
 .[dfad']2 z2 z2 | [dfad']4 [eac'e']2 | [fad'f']2 [gc'e'g']2 .[fad'f']2 | %215
 .[eac'e']2!8va)! z2 z [A,A] | [A,A]4- [A,A][A,A] |!ff!!8va(! [eac'e']4!f! [eac'e'][^da^b^d'] | %218
 .[eac'e']2 z2 z2 | [eac'e']4 [eac'e'][^da^b^d'] | .[eac'e']2 z2 z2 | [eac'e']4 [fd'f']2 | %222
 [af'a']2 [ge'g']2 [egc'e']2 | .[dfad']2!8va)! f2 d2 | A2 F2 D2 :| [A,DF]6- | [A,DF]6 | [A,EG]6- | %228
 [A,EG]6 | [A,DF]6- | [A,DF]6 | [A,CE]6- | [A,CE]6 | [A,DF]6- | [A,DF]6 | [A,EG]6- | [A,EG]6 | %237
 [_B,EG]6- | [B,EG]4[Q:1/8=180] |:[K:F][Q:1/4=354]"^Presto" [A,F]2 |{/F} [A,A]2 F z [A,FA]2 | %241
 [CAc]2 [CFA] z [Ac]2 | .[Af]2 .[Af]2 .[ce]2 | .[Bd]2 .[Bd]2 .[Ac]2 | .[GB]2 .[GB]2 .[FA]2 | %245
 [EG]6 | .[eg]2 .[eg]2 .[df]2 | .[ce]2 .[ce]2 .[Bd]2 | .[Ac]2 .[Ac]2 .[GB]2 | [FA]6 | %250
 .[EG]2 .[EG]2 .F2 | [EB]4 [FA]2 | .[CEG]2!mp! .[CEG]2 .[CF]2 |!mf! [EB]4!f! [FA]2 | %254
 [D^Gd]4 [EA^c]2 |!ff! [^G=Bf]4!f! [Ae]2 |!f! ^g/a/g/a/ g/a/g/a/ g/a/^f/g/ | .[A^ca]2 .e2 .c2 | %258
 d/e/d/e/ d/e/d/e/ d/e/^c/d/ | .[A^c]2 .e2 .a2 | ^g/a/g/a/ g/a/g/a/ g/a/^f/g/ | %261
 .[A^ca]2 .[Ee]2 .[^Cc]2 | .A2 .E2 .^C2 | .A,2 z2 :|[K:bass] A,,2 | %265
{/A,,} ^C,2 A,, z[K:treble] A,2 |{/A,} ^C2 A, z z2 | z2 z2 a2 |{/a} ^c'2 a z .[ea]2 | %269
 .[^f=b]2 .[fb]2 .[ea]2 | [^gd']4 [a^c']2 | .[^f=b]2 .[fb]2 .[ea]2 | [^gd']4 [a^c']2 | %273
!pp! [^gd']4 [a^c']2 | [^gd']4 [a^c']2 | [^gd']4 [a^c']2 | [^gd']4 [a^c']2 |!pp! [^c=g]4 [d^f]2 | %278
 [^c=g]4 [d^f]2 | [^c=g]4 [d^f]2 | [^c=g]4 [d^f]2 | [DF]6- | [DF]6- | [DF]4 .[d=b]2 | %284
 [fd']2 [d=b] z .[gc']2 | .[ad']2 .[ad']2 .[gc']2 | [=bf']4 [c'e']2 | .[ad']2 .[ad']2 .[gc']2 | %288
 [=bf']4 [c'e']2 |!pp! [=bf']4 [c'e']2 | [=bf']4 [c'e']2 | [=bf']4 [c'e']2 | [=bf']4 [c'e']2 | %293
!pp! [e_b]4 [fa]2 | [e_b]4 [fa]2 | [e_b]4 [fa]2 | [e_b]4 [fa]2 | [C_E]6 | [C_E]6 | [C_E]4 [ca]2 | %300
 [_ec']2 [ca] z .[Bd]2 | .[B_e]2 .[Be]2 .[Bd]2 | [Bg]4 [Bf]2 | .[B_e]2 .[Be]2 .[Bd]2 | g4 f2 | %305
 [df]2 [Bd] z f2 | .b2 .b2 .a2 | .g2 .g2 .f2 | ._e2 .e2 .d2 | .c2 z2 z2 | .c'2 .c'2 .b2 | %311
 .a2 .a2 .g2 | .f2 .f2 ._e2 | .d2 z2 z2 |!mp! .[bd']2 .[bd']2 .[ac']2 | .[gb]2 .[gb]2 .[fa]2 | %316
 .[_eg]2 .[eg]2 .[df]2 | [c_e]2 z2 z2 | .[ac']2 .[ac']2 .[gb]2 | .[fa]2 .[fa]2 .[_eg]2 | %320
 .[df]2 .[df]2 .[c_e]2 | [Bd]2 z2 z2 | [Ff-]6 | f6- | f6- | f2 [Geg]2 [Geg]2 | [Ge-g-]6 | %327
 [eg]4 x2 | x6 |{/f} [Aa]2 .[Ff] z [Afa]2 |{/[fa]} [cc']2 .[Ff] z .[cac']2 |!ff! [faf']6- | %332
 [faf']6- | [f-af'-]6 | [ff']2 [gbg']2 .[gbg']2 |!8va(! [gbg']6- | [gbg']6- | [gbg']6- | %338
 [gbg']2 [ac'a']2 .[ac'a']2!8va)! | [Af]6- | [Af]6- | [Af]6- | [Af]2 [cg]2 .[cg]2 | [cg]6- | %344
 [xg]6- | [cg]6- | [cg]2 [fa]2 [fa]2 | .[EG]2 .[EG]2 .F2 | [EB]4 [FA]2 | .[cg]2 .[cg]2 .[cf]2 | %350
 [eb]4 [fa]2 | .[CEG]2!mp! .[CEG]2 .[CF]2 |!mf! [CEB]4 [CFA]2 | [DFd]4 [CFc]2 | [F=Bf]4 [Ece]2 | %355
!ff! [Aca]4!f! [Gcg]2 |!ff! [=Bf=b]4 [cec']2 | =b/c'/b/c'/ b/c'/b/c'/ b/c'/a/b/ | .c'2 .g2 .e2 | %359
 f/g/f/g/ f/g/f/g/ f/g/e/f/ | .e2 .g2 .c'2 | =b/c'/b/c'/ b/c'/b/c'/ b/c'/a/b/ | .c'2 .g2 .e2 | %363
 =b/c'/b/c'/ b/c'/b/c'/ b/c'/a/b/ | .c'2!f! .g2 .e2 | %365
!ff!{/e} e'/f'/e'/f'/ e'/f'/e'/f'/ e'/f'/d'/e'/ | .[ff']2 .c'2 .a2 | %367
 b/c'/b/c'/ b/c'/b/c'/ b/c'/a/b/ | .[af']2 .c'2 .f'2 |{/e} e'/f'/e'/f'/ e'/f'/e'/f'/ e'/f'/d'/e'/ | %370
 .[ff']2 .c'2 .a2 |{/e} e'/f'/e'/f'/ e'/f'/e'/f'/ e'/f'/d'/e'/ | .[ff']2 .c'2 .a2 | %373
{/e} e'/f'/e'/f'/ e'/f'/e'/f'/ e'/f'/d'/e'/ | .[ff']2 .[cc']2 .[Aa]2 | .[Ff]2 .[Cc]2 .[A,A]2 | %376
 .[F,F]2[K:bass] .C,2 .F,,2 |{/F,,} A,,2 F,, z .F,2 |!ff!{/F,} A,2 F, z[K:treble] .F2 | %379
{/F} A2 F z .f2 |{/f} a2 f z!8va(! .[ff']2 |{/f'} [aa']2 f' z .[ff']2 |{/f'} [aa']2 f' z .[ff']2 | %383
{/f'} [aa']2!f! f' z .[ff']2 |{/f'} [aa']2 f' z .[ff']2 | [aa']6- | [aa']6- | [aa']6- | %388
 [aa']6!8va)! |!p![Q:1/4=228]"^Assai meno Presto" [D^Fd]4- [DFd][^CE^c] | [D^Fd]2 z2 z2 | %391
 [D-=Fd-]4 [DFd][^CE^c] | [DFd]2 z2 z2 ||[Q:1/4=354]"^Presto"!ff!!8va(! [bb']2 z2 z2 | %394
 [=b=b']2 z2 z2 | [c'c'']2!8va)! z2 z2 | [EGBe]2 z2 z2 | [FAf]2 z2 z2 |] %398
V:2
!f! [F,,,F,,]2 | [F,,,F,,]2 z2 [F,,,F,,]2 | [F,,,F,,]2 z2 [F,,C,F,]2 | %3
 .[F,,C,F,]2 .[F,A,]2 .[A,C]2 | .[F,A,]2 .[F,A,]2 .[A,C]2 | .[F,A,]2 .[F,A,]2 .[A,C]2 | %6
 .[C,G,]2 .[C,G,]2 .[G,C]2 | .[C,G,]2 .[C,G,]2 .[G,C]2 | .[C,G,]2 .[C,G,]2 .[G,C]2 | %9
 .[C,G,]2 .[C,G,]2 .[G,C]2 | .[F,A,]2 .[F,A,]2 .[A,C]2 | .[B,C]2 .[B,C]2 .[A,C]2 | C6 | %13
!mp!"^cresc." .[B,,B,]2 .[B,,B,]2!mf! .[A,,A,]2 | [G,,G,]4!f! [F,,F,]2 |!ff! [B,,B,]4!f! [A,,A,]2 | %16
 [D,D]4 [^C,^C]2 |!f!!ped! [E,,E,]2 .[DE]2 .[DE]2!ped-up! | .[A,^C]2 .[CE]2 .[CE]2 | %19
!ped! .[E,^G,=B,]2 .[B,E]2 .[B,E]2!ped-up! | .[A,^C]2 .[CE]2 .[CE]2 | %21
!ped! [E,,E,]2 .[DE]2 .[DE]2!ped-up! |!ped! .[A,^C]2 .E,2 .^C,2 | %23
 .A,,2!ped-up! .[E,,E,]2 .[^C,,^C,]2 | .[A,,,A,,]2 z2 ::!f! A,,,2 |!ff!{/A,,,} ^C,,2!f! A,,, z z2 | %27
 z2 z2[K:treble] A2 |!ff!{/A} ^c2!f! A z z2 | z2 z2 .^c2 | .d2 .d2 .^c2 | =B4 A2 | .d2 .d2 .^c2 | %33
 =B4 A2 | =B4 A2 | =B4 A2 | =B4 A2 | =B4 A2 |[K:bass] E4 D2 | E4 D2 | E4 D2 | E4 D2 | %42
 [_A,,,_A,,]4 [G,,,G,,]2 | [_A,,,_A,,]4 [G,,,G,,]2 | [_A,,,_A,,]4!ped! [G,,,G,,]2 | %45
 [G,,G,]2!ped-up! z2[K:treble] .e2 | .f2 .f2 .e2 | d4 c2 | .f2 .f2 .e2 | d4 c2 | d4 c2 | d4 c2 | %52
 d4 c2 | d4 c2 |[K:bass] G4 F2 | G4 F2 | G4 F2 | G4 F2 | [_G,,,_G,,]4 [F,,,F,,]2 | %59
 [_G,,,_G,,]4 [F,,,F,,]2 | [_G,,,_G,,]4!ff!!ped! [F,,,F,,]2 | [F,,F,]2!ped-up! z2[K:treble] .F2 | %62
 .G2 .G2 .F2 | _E4 D2 | .G2 .G2 .[B,F]2 |[K:bass]"^dolce" D2 B, z D2 |!ped! .B,,2 .F,2 .B,2 | %67
 .B,,2 .F,2 .B,2!ped-up! | .B,,2 .F,2 .B,2 | .B,,2 .F,2 .B,2 | .[F,B,]2 .[A,C]2 .[A,C]2 | %71
!ped! .F,,2 .A,2 .C2 | .F,,2 .A,2 .C2 | .F,,2 .A,2 .C2!ped-up! |{/B,,} [A,C]2 [B,D]2 [B,D]2 | %75
"^poco    a"!ped! .B,,2!mp! .F,2 .B,2 |"^poco" .B,,2 .F,2 .B,2!ped-up! |"^cresc." .B,,2 .F,2 .B,2 | %78
 [B,D]2 [C_E]2 .[CE]2 |!ped! .F,,2 .F,2 .C2 | .F,,2 .F,2 .C2!ped-up! | .F,,2 .F,2 .C2 | %82
 B,2 .D2 .D2 |"^cresc." z2!mf! .F2 .=E2 | .[DF]2 .[DF]2 .[CE]2 | .[B,D]2 .[B,D]2 .[A,C]2 | %86
 .[G,B,E]2 .[G,B,E]2 .[F,A,D]2 |!ped! .[E,G,C]2 .[E,G,C]2 .[D,F,B,]2!ped-up! | %88
 .[C,E,A,]2 .[C,E,A,]2 .[B,,D,G,]2 | .[A,,C,F,]2 .[G,,B,,E,]2!f! .[F,,A,,C,F,]2 | %90
!ped! .[F,,A,,C,F,]2 z2 [F,,C,F,]2 | [F,,C,F,]2 z2 [F,,C,F,]2 |!ff! z2 [F,A,F]2 [F,A,F]2 | %93
 [F,A,F]2 [F,A,F]2 [F,A,F]2!ped-up! | [F,CF]2 [F,CF]2 [F,CF]2 | [G,C]4!ped! z2 | %96
 z2 [G,B,CG]2 [G,B,CG]2 | [G,B,CG]2 [G,B,CG]2 [G,B,CG]2 | [G,B,CG]2 [G,B,CG]2 [G,B,CG]2!ped-up! | %99
!ped! C6!ped-up! | .[F,F]2 .F2 .E2 | .[F,D]2 .D2 .C2 | .B,2 .B,2 .A,2 | [C,G,]2!ped! [CG]2 [CG]2 | %104
 .[CEG]2 .[EG]2 .[DF]2!ped-up! | .[CE]2 .[CE]2 .[B,D]2 | .[A,C]2 .[A,C]2 .[G,B,]2 | %107
 .[F,A,]2 .[FA]2 .[FA]2 | .[B,C]2 .[B,C]2 .[A,C]2 | C6 | .[B,E]2 .[B,E]2 .[A,C]2 | C6 | %112
!mp!"^cresc." .[B,,B,]2 .[B,,B,]2 .[A,,A,]2 |!mf! [G,,G,]4 [F,,F,]2 | [B,,B,]4 [A,,A,]2 | %115
 [D,D]4 [C,C]2 | [F,CF]4 [E,CE]2 | [D,G,D]4 [C,G,C]2 | %118
[K:treble]!p!!ped! [G,DF]2 [DFG]2 [DFG]2!ped-up! | .[CE]2 .[EG]2 .[EG]2 | %120
 .[G,=B,D]2 .[DG]2 .[DG]2 | .[CE]2 .[EG]2 .[EG]2 |!mp!"^cresc." .[G,DF]2 .[DFG]2 .[DFG]2 | %123
 .[CE]2 .[EG]2 .[EG]2 |!mf! .[G,DF]2 .[DFG]2 .[DFG]2 | .[CE]2!f! .[EG]2 .[EG]2 | %126
[K:bass]!ped! [C,G,_B,]2 [B,C]2 [B,C]2!ped-up! | .[F,A,]2 .[A,C]2 .[A,C]2 | %128
 .[C,E,G,]2 .[G,C]2 .[G,C]2 | .[F,A,]2 .[A,C]2 .[A,C]2 | [C,G,B,]2 [B,C]2 [B,C]2 | %131
 .[F,A,]2 .[A,C]2 .[A,C]2 | [C,G,B,]2 [B,C]2 [B,C]2 | .[F,A,]2 .[A,C]2 .[A,C]2 | %134
 [C,G,B,]2 [G,B,C]2 [G,B,C]2 | .[F,A,CF]2 .[C,C]2 .[A,,A,]2 | .[F,,F,]2!f! .[C,,C,]2 .[A,,,A,,]2 | %137
 .[F,,,F,,]2 .C,,2 .F,,,2 |!ff!{/F,,,} A,,,2 F,,, z .F,,2 |!ff!{/F,,} A,,2!f! F,, z .F,2 | %140
{/F,} A,2 F, z[K:treble] .F2 |!ff!{/F} A2!f! F z[K:bass] .F,,2 | %142
!ff!{/F,,} [A,,,A,,]2!f! F,, z .F,,2 |!ff!{/F,,} [A,,,A,,]2!f! F,, z .F,,2 | %144
!ff!{/F,,} [A,,,A,,]2!f! F,, z .F,,2 |!ff!{/F,,} [A,,,A,,]2 F,, z!f! .F,,2 | [A,,,A,,]6- | %147
 [A,,,A,,]6- | [A,,,A,,]6- |1 [A,,,A,,]6- :|2 [A,,,A,,]6 || %151
[K:D]"^dolce"!p! [D,F,]4- [D,F,][A,,E,] | [D,F,]2 z2 z2 | [D,F,]4- [D,F,][A,,E,] | [D,F,]2 z2 z2 | %155
 [D,F,]4 [C,G,]2 | [D,F,]2 A,4- | A,2 z2 z2 | z6 | [A,,A,]6- | [A,,A,]2 z2 z2 | [A,,A,]6- | %162
 [A,,A,]2 z2 z2 | A,2 G,2 F,2 | F,2 E,2 G,2 | F,2 z2 z2 | z6 |[K:treble]!p! [DF]4- [DF][A,EG] | %168
!ped! [DFA]2 z2 z2 | [DFA]4-!ped-up! [DFA][A,EG] |!ped! [DFA]2 z2 z2 | [DFA]4!ped-up! [CGA]2 | %172
 [DFA]2 [CEA]2 .[DFA]2 | [A,EA]2 z2 z2 | z6 | [EG]4- [EG]F |!ped! [EG]2 z2 z2 | %177
 [EG]4- [EG]!ped-up!F |!ped! [EG]2 z2 z2!ped-up! |[K:bass] A,2 G,2 F,2 | F,2 E,2 .G,2 | %181
 [D,F,]2 z2 F2 | A2 F2 D z |:!ped! [F,A,]6-!ped-up! | [F,A,]4 [G,B,]2 |!ped! [E,G,]6- | %186
 [E,G,]4!ped-up! [F,A,]2 |!ped! [D,F,]6- | [D,F,]2 [F,A,]2 [E,G,]2!ped-up! | [D,F,]6 | %190
 [C,E,]2 z2 z2 |!ped! [F,A,]6 | [F,A,]2!ped-up! [A,C]2 [=G,B,]2 | [F,A,]4 [E,G,]2- | %194
 [E,G,]2 [G,B,]2 [F,A,]2 |!<(! [E,G,]2 [D,F,]2!mp! [F,A,]2!<)! | [F,D]2!p! [F,A,]2 [D,F,]2 | %197
 [C,E,]6- | [C,E,]2 [F,A,]2 [D,F,]2 | [C,E,]6- | [C,E,]2 [F,A,]2 [D,F,]2 | [A,,C,E,]2 ^G,,2 A,, z | %202
"^cresc." ^G,,2 A,, z!mp! G,,2 | A,, z!ped! ^G,,2 A,, z | ^G,,2!mf! A,, z G,,2!ped-up! | %205
 A,, z!ped! ^G,,2 A,, z | ^G,,2 A,, z G,,2!ped-up! | A,, z!ped! [^G,,^G,]2!f! [A,,A,] z | %208
 [^G,,^G,]2 [A,,A,]!ped-up! z .[A,,C,E,A,]2 |!ped! [D,F,A,D]4- [D,F,A,D][A,,A,]!ped-up! | %210
 .[D,,D,]2 z2 z2 |!ped! [D,F,A,D]4- [D,F,A,D][A,,A,]!ped-up! | .[D,,D,]2 z2 z2 | %213
 [D,F,A,D]4 [A,,C,E,A,]2 | [D,,D,]2 [A,,,A,,]2 .[D,,D,]2 | .[A,,C,E,A,]2 z2 z!f!!ped! [A,,,A,,] | %216
 [A,,,A,,]4- [A,,,A,,][A,,,A,,] | [G,A,CE]4 [G,A,CE][F,A,^B,^D]!ped-up! | %218
 .[G,A,CE]2 z2 z!ped! [A,,,A,,] | [G,A,CE]4!f! [G,A,CE][F,A,^B,^D]!ped-up! | %220
 .[G,A,CE]2 z2 z!ped! [A,,,A,,] |!ff! [G,A,CE]4 [F,A,DF]2 | F2 E2!ped-up! A,2 | .[D,F,A,D]2 F2 D2 | %224
 A,2 F,2 D,2 :|!p! A,,4- A,,^G,, | A,,2 z2 z2 | A,,4- A,,^G,, | A,,2 z2 z2 | A,,4- A,,^G,, | %230
 A,,2 z2 z2 | A,,4- A,,^G,, | A,,2 z2 z2 | A,,4- A,,^G,, | A,,2 z2 z2 |!ped! A,,4- A,,^G,, | %236
 A,,2!ped-up! z2 z2 |!pp!!ped! [=C,,=C,]4- [C,,C,][=B,,,=B,,] | [=C,,=C,]2!ped-up! z2 |: %239
[K:F]!f! [F,,,F,,]2 | [F,,,F,,]2 z2 [F,,,F,,]2 | [F,,,F,,]2 z2 [F,,C,F,]2 | %242
!p! .[F,,C,F,]2 .[F,A,]2 .[A,C]2 | .[F,A,]2 .[F,A,]2 .[A,C]2 | .[F,A,]2 .[F,A,]2 .[A,C]2 | %245
 .[C,G,]2 .[C,G,]2 .[G,C]2 | .[C,G,]2 .[C,G,]2 .[G,C]2 | .[C,G,]2 .[C,G,]2 .[G,C]2 | %248
 .[C,G,]2 .[C,G,]2 .[G,C]2 | .[F,A,]2 .[F,A,]2 .[A,C]2 | .[B,C]2 .[B,C]2 .[A,C]2 | C6 | %252
!mp!"^cresc." .[B,,B,]2 .[B,,B,]2!mf! .[A,,A,]2 | [G,,G,]4 [F,,F,]2 |!ff! [B,,B,]4!f! [A,,A,]2 | %255
 [D,D]4 [^C,^C]2 |!ped! [E,,E,]2 .[DE]2 .[DE]2!ped-up! | .[A,^C]2 .[CE]2 .[CE]2 | %258
!ped! .[E,^G,=B,]2 .[B,E]2 .[B,E]2!ped-up! | .[A,^C]2 .[CE]2 .[CE]2 | %260
!ped! [E,,E,]2 .[DE]2 .[DE]2!ped-up! |!ped! .[A,^C]2 .E,2 .^C,2 | %262
 .A,,2!ped-up! .[E,,E,]2 .[^C,,^C,]2 | .[A,,,A,,]2 z2 :|!p! A,,,2 |{/A,,,} ^C,,2 A,,, z z2 | %266
 z2 z2[K:treble] A2 |{/A} ^c2 A z z2 | z2 z2 .^c2 | .d2 .d2 .^c2 | =B4 A2 | .d2 .d2 .^c2 | =B4 A2 | %273
 =B4 A2 | =B4 A2 | =B4 A2 | =B4 A2 |[K:bass] E4 D2 | E4 D2 | E4 D2 | E4 D2 | %281
!pp! [_A,,,_A,,]4 [G,,,G,,]2 | [_A,,,_A,,]4 [G,,,G,,]2 | [_A,,,_A,,]4 [G,,,G,,]2 | %284
 [G,,G,]2 z2[K:treble] .e2 | .f2 .f2 .e2 | d4 c2 | .f2 .f2 .e2 | d4 c2 | d4 c2 | d4 c2 | d4 c2 | %292
 d4 c2 |[K:bass] G4 F2 | G4 F2 | G4 F2 | G4 F2 | [_G,,,_G,,]4 [F,,,F,,]2 | %298
 [_G,,,_G,,]4 [F,,,F,,]2 | [_G,,,_G,,]4!pp!!ped! [F,,,F,,]2 | %300
 [F,,F,]2 z2!ped-up![K:treble]!p! .F2 | .G2 .G2 .F2 | _E4 D2 | .G2 .G2 .[B,F]2 | %304
"^dolce" D2 B, z D2 |[K:bass]!ped! B,,2 F,2 B,2 | .B,,2 .F,2 .B,2 | .B,,2 .F,2 .B,2!ped-up! | %308
 .B,,2 .F,2 .B,2 | .[F,B,]2 .[A,C]2 .[A,C]2 |!ped! .F,,2 .A,2 .C2 | .F,,2 .A,2 .C2 | %312
 .F,,2!ped-up! .A,2 .C2 |{/B,,} [A,C]2 [B,D]2 [B,D]2 |"^poco a poco cresc."!ped! .B,,2 .F,2 .B,2 | %315
 .B,,2 .F,2 .B,2!ped-up! | .B,,2 .F,2 .B,2 | [B,D]2 [C_E]2 .[CE]2 |!ped! .F,,2 .F,2 .C2 | %319
 .F,,2 .F,2 .C2 | .F,,2 .F,2 .C2!ped-up! | B,2 .D2 .D2 | .F,2 .[F,F]2 .[E,E]2 | %323
 .[D,D]2 .[D,D]2 .[C,C]2 | .[B,,B,]2 .[B,,B,]2 .[A,,A,]2 | .[G,,G,]2 .[G,,B,,G,]2 .[F,,A,,F,]2 | %326
"^cresc."!ped! .[E,,G,,E,]2 .[E,,G,,E,]2 .[D,,F,,D,]2!ped-up! | %327
 .[C,,E,,C,]2!mf! .[C,,C,]2 .[B,,,B,,]2 | .[A,,,A,,]2 .[G,,,G,,]2 .[F,,,F,,]2 | %329
!f! [F,A,]2 .[F,,F,] z [F,A,]2 | [F,A,C]2 .[F,,F,] z .[F,A,C]2 |!ped! z2 [F,A,F]2 [F,A,F]2 | %332
 [F,A,F]2 [F,A,F]2 [F,A,F]2!ped-up! | [F,CF]2 [F,CF]2 [F,CF]2 | [G,C]4!ped! z2 | %335
 z2 [G,B,CG]2 [G,B,CG]2 | [G,B,CG]2 [G,B,CG]2 [G,B,CG]2 | [G,B,CG]2 [G,B,CG]2 [G,B,CG]2!ped-up! | %338
 [A,C]4 z2 |!p! .[F,F]2 .F2 .E2 | .[F,D]2 .D2 .C2 | .[F,B,]2 .[F,B,]2 .[F,A,]2 | %342
 z2!ped! .[CG]2 .[CG]2 | [CG]6!ped-up! | x6 | x6 | z2 .[FA]2 .[FA]2 |!p! .[B,C]2 .[B,C]2 .[A,C]2 | %348
 C6 | .[B,E]2 .[B,E]2 .[A,C]2 | C6 |!mp!"^cresc." .[B,,B,]2 .[B,,B,]2!mf! .[A,,A,]2 | %352
 [G,,G,]4 [F,,F,]2 |!f! [B,,B,]4 [A,,A,]2 |!ff! [D,D]4!f! [C,C]2 | [F,F]4 [E,E]2 | [D,D]4 [C,C]2 | %357
[K:treble]!p!!ped! [G,DF]2 [DFG]2 [DFG]2!ped-up! |!ped! .[CE]2 .[EG]2 .[EG]2!ped-up! | %359
!ped! .[G,=B,D]2 .[DG]2 .[DG]2!ped-up! |!ped! .[CE]2 .[EG]2 .[EG]2!ped-up! | %361
!mp!"^cresc."!ped! .[G,DF]2 .[DFG]2 .[DFG]2!ped-up! |!ped! .[CE]2 .[EG]2 .[EG]2!ped-up! | %363
!ped! .[G,DF]2 .[DFG]2 .[DFG]2!ped-up! |!ped! .[CE]2 .[EG]2 .[EG]2!ped-up! | %365
[K:bass]!ped! [C,G,_B,]2 [B,C]2 [B,C]2!ped-up! |!ped! .[F,A,]2 .[A,C]2 .[A,C]2!ped-up! | %367
!ped! .[C,E,G,]2 .[G,C]2 .[G,C]2!ped-up! |!ped! .[F,A,]2 .[A,C]2 .[A,C]2!ped-up! | %369
!ped! [C,G,B,]2 [B,C]2 [B,C]2!ped-up! |!ped! .[F,A,]2 .[A,C]2 .[A,C]2!ped-up! | %371
!ped! [C,G,B,]2 [B,C]2 [B,C]2!ped-up! |!ped! .[F,A,]2 .[A,C]2 .[A,C]2!ped-up! | %373
!ped! [C,G,B,]2 [G,B,C]2 [G,B,C]2!ped-up! | .[F,A,CF]2 .[C,C]2 .[A,,A,]2 | %375
 .[F,,F,]2!f! .[C,,C,]2 .[A,,,A,,]2 | .[F,,,F,,]2 .C,,2 .F,,,2 |!ff!{/F,,,} A,,,2!f! F,,, z .F,,2 | %378
{/F,,} A,,2!f! F,, z .F,2 |{/F,} A,2 F, z[K:treble] .F2 |!ff!{/F} A2!f! F z[K:bass] .F,,2 | %381
!ff!!ped!{/F,,} [A,,,A,,]2!f! F,, z .F,,2 |!ff!{/F,,} [A,,,A,,]2!f! F,, z .F,,2 | %383
!ff!{/F,,} [A,,,A,,]2 F,, z .F,,2 |!ff!{/F,,} [A,,,A,,]2!f! F,, z .F,,2!ped-up! | %385
!ff!!ped! [A,,,A,,]6- | [A,,,A,,]6- | [A,,,A,,]6- | [A,,,A,,]6!ped-up! | %389
!ped!!<(! [A,,D,-^F,-A,-]4!<)! [D,F,A,]!mp!!>(![A,,E,A,]!ped-up!!>)! |!p! [A,,D,^F,A,]2 z2 z2 | %391
!ped!!<(! [A,,D,-=F,-A,-]4!<)! [D,F,A,]!mp!!>(![A,,E,A,]!ped-up!!>)! |!p! [A,,D,F,A,]2 z2 z2 || %393
 [B,,,B,,]2 z2 z2 | [=B,,,=B,,]2 z2 z2 | [C,,C,]2 z2 z2 | [C,E,G,C]2 z2 z2 | [F,,C,F,]2 z2 z2 |] %398
V:3
 x2 | x6 | x6 | x6 | x6 | x6 | x6 | x6 | x6 | x6 | x6 | x6 | G,4 F,2 | x6 | x6 | x6 | x6 | x6 | %18
 x6 | x6 | x6 | x6 | x6 | x6 | x4 :: x2 | x6 | x4[K:treble] x2 | x6 | x6 | x6 | x6 | x6 | x6 | x6 | %35
 x6 | x6 | x6 |[K:bass] x6 | x6 | x6 | x6 | x6 | x6 | x6 | x4[K:treble] x2 | x6 | x6 | x6 | x6 | %50
 x6 | x6 | x6 | x6 |[K:bass] x6 | x6 | x6 | x6 | x6 | x6 | x6 | x4[K:treble] x2 | x6 | x6 | x6 | %65
[K:bass] x6 | x6 | x6 | x6 | x6 | x6 | x6 | x6 | x6 | x6 | x6 | x6 | x6 | F,2 x4 | x6 | x6 | x6 | %82
 B,,2 x4 | x6 | x6 | x6 | x6 | x6 | x6 | x6 | x6 | x6 | [F,,F,]6- | [F,,F,]6- | [F,,F,]6- | %95
 [F,,F,]2 [E,,E,]2 [E,,E,]2 | [E,,E,]6- | [E,,E,]6- | [E,,E,]6 | [E,G,]2 [F,A,]2 [F,A,]2 | x6 | %101
 x6 | x6 | x6 | x6 | x6 | x6 | x6 | x6 | G,4 F,2 | x6 | G,4 F,2 | x6 | x6 | x6 | x6 | x6 | x6 | %118
[K:treble] x6 | x6 | x6 | x6 | x6 | x6 | x6 | x6 |[K:bass] x6 | x6 | x6 | x6 | x6 | x6 | x6 | x6 | %134
 x6 | x6 | x6 | x6 | x6 | x6 | x4[K:treble] x2 | x4[K:bass] x2 | x6 | x6 | x6 | x6 | x6 | x6 | %148
 x6 |1 x6 :|2 x6 ||[K:D] x6 | x6 | x6 | x6 | x6 | z2 C,2 D,2 | A,,2 z2 z2 | x6 | E,4- E,F, | %160
 E,2 z2 z2 | E,4 E,F, | E,2 z2 z2 | A,,4 D,2 | D,2 A,,2 A,,2 | D,2 z2 z2 | x6 |[K:treble] x6 | x6 | %169
 x6 | x6 | x6 | x6 | x6 | x6 | A,6- | A,2 z2 z2 | A,6- | A,2 z2 z2 |[K:bass] A,,4 D,2 | %180
 D,2 A,,2 .A,,2 | x6 | x6 |: A,,4- A,,^G,, | A,,2 z2 z2 | A,,4- A,,^G,, | A,,2 z2 z2 | %187
 A,,4- A,,^G,, | A,,2 z2 z2 | A,,4- A,,^G,, | A,,2 z2 z2 | A,,4- A,,^G,, | A,,2 z2 z2 | %193
 A,,4- A,,^G,, | A,,2 z2 z2 | A,,4 z2 | x6 | A,,4- A,,^G,, | A,,2 z2 z2 | A,,4- A,,^G,, | %200
 A,,2 z2 z2 | x6 | x6 | x6 | x6 | x6 | x6 | x6 | x6 | x6 | x6 | x6 | x6 | x6 | x6 | x6 | x6 | x6 | %218
 x6 | x6 | x6 | x6 | [E,B,]4 A,,2 | x6 | x6 :| [D,,D,]6- | [D,,D,]4 z2 | [C,,C,]6- | [C,,C,]6 | %229
 [D,,D,]6- | [D,,D,]4 z2 | A,,,6- | [A,,,A,,]6 | [D,,D,]6- | [D,,D,]4 z2 | [C,,C,]6- | [C,,C,]6 | %237
 x6 | x4 |:[K:F] x2 | x6 | x6 | x6 | x6 | x6 | x6 | x6 | x6 | x6 | x6 | x6 | G,4 F,2 | x6 | x6 | %254
 x6 | x6 | x6 | x6 | x6 | x6 | x6 | x6 | x6 | x4 :| x2 | x6 | x3[K:treble] x3 | x6 | x6 | x6 | x6 | %271
 x6 | x6 | x6 | x6 | x6 | x6 |[K:bass] x6 | x6 | x6 | x6 | x6 | x6 | x6 | x3[K:treble] x3 | x6 | %286
 x6 | x6 | x6 | x6 | x6 | x6 | x6 |[K:bass] x6 | x6 | x6 | x6 | x6 | x6 | x6 | x4[K:treble] x2 | %301
 x6 | x6 | x6 | x6 |[K:bass] x6 | x6 | x6 | x6 | x6 | x6 | x6 | x6 | x6 | x6 | x6 | x6 | F,2 x4 | %318
 x6 | x6 | x6 | B,,2 x4 | x6 | x6 | x6 | x6 | x6 | x6 | x6 | x6 | x6 | [F,,F,]6- | [F,,F,]6- | %333
 [F,,F,]6- | [F,,F,]2 [E,,C,E,]2 .[E,,C,E,]2 | [E,,-G,,C,-E,-]6 | [E,,C,E,]6- | [E,,C,E,]6- | %338
 [E,,C,E,G,]2 [F,,A,,C,F,]2 .[F,,A,,C,F,]2 | x6 | x6 | x6 | .[C,G,]2 z2 z2 | .[EG]2 .[EG]2 .[DF]2 | %344
 .[CE]2 .[CE]2 .[B,D]2 | .[A,C]2 .[A,C]2 .[G,B,]2 | .[F,A,]2 z2 z2 | x6 | G,4 F,2 | x6 | G,4 F,2 | %351
 x6 | x6 | x6 | x6 | x6 | x6 |[K:treble] x6 | x6 | x6 | x6 | x6 | x6 | x6 | x6 |[K:bass] x6 | x6 | %367
 x6 | x6 | x6 | x6 | x6 | x6 | x6 | x6 | x6 | x6 | x6 | x6 | x4[K:treble] x2 | x4[K:bass] x2 | x6 | %382
 x6 | x6 | x6 | x6 | x6 | x6 | x6 | x6 | x6 | x6 | x6 || x6 | x6 | x6 | x6 | x6 |] %398
V:4
 x2 | x6 | x6 | x6 | x6 | x6 | x6 | x6 | x6 | x6 | x6 | x6 | x6 | x6 | C6 | x6 | x6 | [=Bd]6 | x6 | %19
 =B6 | x6 | [=Bd]6 | x6 | x6 | x4 ::[K:bass] x2 | x4[K:treble] x2 | x6 | x6 | x6 | x6 | x6 | x6 | %33
 x6 | x6 | x6 | x6 | x6 | x6 | x6 | x6 | x6 | =C4 =B,2 | C4 =B,2 | C4 x2 | x6 | x6 | x6 | x6 | x6 | %50
 x6 | x6 | x6 | x6 | x6 | x6 | x6 | x6 | B,4 A,2 | B,4 A,2 | B,4 x2 | x6 | x6 | x6 | x6 | %65
 [Bd]2 x4 | x6 | [Bd]2 x4 | [Bd]2 x4 | [FB]2 x4 | F2 x4 | [cf]2 x4 | [Ac]2 x4 | [Ac]2 x4 | F2 x4 | %75
 d2 x4 | B2 x4 | B2 x4 | F2 x4 | c2 x4 | A2 x4 | F2 x4 | _E2 F2 F2 | F2 z2 z2 | x6 | .G2 .G2 .F2 | %86
 x6 | .G2 .G2 .A2 | .B2 .B2 .c2 | .d2 .e2 .f2 | x6 | x6 |!8va(! .[faf']2 .[ff']2 .[ee']2 | %93
 .[dd']2 .[dd']2 .[cc']2 | .[Bb]2 .[Bb]2 .[Aa]2 | [Gg]6 | .[gg']2 .[gg']2 .[ff']2 | %97
 .[ee']2 .[ee']2 .[dd']2 | .[cc']2 .[cc']2 .[Bb]2 | [Aa]4 z2!8va)! | [Af]6- | [Af]6- | [Af]6- | %103
 [Af]2 z4 | [cg]6- | .[cg]6- | .[cg]6- | .[cg]2 z4 | x6 | x6 | x6 | x6 | x6 | x6 | F6 | x6 | x6 | %117
 x6 | x6 | x6 | x6 | x6 | x6 | x6 | x6 | x6 | x6 | x6 | x6 | x6 | x6 | x6 | x6 | x6 | x6 | x6 | %136
 x6 | x2[K:bass] x4 | x6 | x4[K:treble] x2 | x6 | x6 |!8va(! x6 | x6 | x6 | x6 | x6 | x6 | x6 |1 %149
 x6 :|2 x6!8va)! ||[K:D] D4- DC | [A,D]2 z2 z2 | D4- DC | [A,D]2 z2 z2 | [A,-D]4 [A,-E]2 | %156
 [A,DF]2 [EG]2 [DF]2 | [CE]2 z2 z2 | x6 | [CE]4- [CE][^B,^D] | [CE]2 z2 z2 | [CE]4- [CE][^B,^D] | %162
 [CE]2 z2 z2 | [CE]4 [DF]2 | [FA]2 [EG]2 E2 | [A,D]2 x4 | x6 | [Ad]4- [Ad][Ac] | x6 | a6- | a6- | %171
 a6- | [Aa]6- | [Aa]4- [Aa][^G^g] | x6 | [Aa]6- | [Aa]6 | [Aa]6- | [Aa]6 | [Aa]6- | [Aa]6- | %181
 [Aa]6 | x6 |: x6 | x6 | x6 | x6 | x6 | x2 [Aa]4 | [Aa]4- [Aa][^G^g] | [Aa]4- [Aa][^G^g] | x6 | %192
 x6 | x6 | x6 | x6 | x6 | [Ec-e-]6 | [ce]2 x2 d2 | x6 | [ce]2 x2 d2 | x6 | x6 | x6 | x6 | x6 | x6 | %207
 x6 | x6 |!8va(! x6 | x6 | x6 | x6 | x6 | x6 | x2!8va)! x4 | x6 |!8va(! x6 | x6 | x6 | x6 | x6 | %222
 x6 | x2!8va)! x4 | x6 :| x6 | x6 | x6 | x6 | x6 | x6 | x6 | x6 | x6 | x6 | x6 | x6 | x6 | x4 |: %239
[K:F] x2 | x6 | x6 | x6 | x6 | x6 | x6 | x6 | x6 | x6 | x6 | x6 | x6 | x6 | C6 | x6 | x6 | [=Bd]6 | %257
 x6 | =B6 | x6 | [=Bd]6 | x6 | x6 | x4 :|[K:bass] x2 | x4[K:treble] x2 | x6 | x6 | x6 | x6 | x6 | %271
 x6 | x6 | x6 | x6 | x6 | x6 | x6 | x6 | x6 | x6 | =C4 =B,2 | C4 =B,2 | C4 x2 | x6 | x6 | x6 | x6 | %288
 x6 | x6 | x6 | x6 | x6 | x6 | x6 | x6 | x6 | B,4 A,2 | B,4 A,2 | B,4 x2 | x6 | x6 | x6 | x6 | %304
 [Bd]2 x4 | x6 | [Bd]2 x4 | [Bd]2 x4 | [FB]2 x4 | F2 x4 | [cf]2 x4 | [Ac]2 x4 | [Ac]2 x4 | F2 x4 | %314
 d2 x4 | B2 x4 | B2 x4 | F2 x4 | c2 x4 | A2 x4 | F2 x4 | _E2 F2 F2 | x6 | .F2 .F2 .E2 | %324
 .[DG]2 .[DG]2 .[CF]2 | .[B,E]2 x4 | z2 .[G,B,G]2 .[A,CA]2 | .[B,DB]2 .[B,DB]2 .[CEc]2 | %328
 .[DFd]2 .[EGe]2 .[FAf]2 | x6 | x6 | .[faf']2 .[ff']2 .[ee']2 | .[dd']2 .[dd']2 .[cc']2 | %333
 .[Bb]2 .[Bb]2 .[Aa]2 | [Gg]4 z2 |!8va(! .[gg']2 .[gg']2 .[ff']2 | .[ee']2 .[ee']2 .[dd']2 | %337
 .[cc']2 .[cc']2 .[Bb]2 | [Aa]4 z2!8va)! | z2 .[Aa]2 .[Bb]2 | .[cc']2 .[cc']2 .[dd']2 | %341
 .[ee']2 .[ee']2 .[ff']2 | [gg']2 z2 z2 | z2 .[Bb]2 .[cc']2 | .[dd']2 .[dd']2 .[ee']2 | %345
 .[ff']2 .[ff']2 .[gg']2 | .[aa']2 z4 | x6 | x6 | x6 | x6 | x6 | x6 | x6 | x6 | x6 | x6 | x6 | x6 | %359
 x6 | x6 | x6 | x6 | x6 | x6 | x6 | x6 | x6 | x6 | x6 | x6 | x6 | x6 | x6 | x6 | x6 | %376
 x2[K:bass] x4 | x6 | x4[K:treble] x2 | x6 | x4!8va(! x2 | x6 | x6 | x6 | x6 | x6 | x6 | x6 | %388
 x6!8va)! | x6 | x6 | x6 | x6 ||!8va(! x6 | x6 | x2!8va)! x4 | x6 | x6 |] %398
V:5
 x2 | x6 | x6 | x6 | x6 | x6 | x6 | x6 | x6 | x6 | x6 | x6 | x6 | x6 | x6 | x6 | x6 | x6 | x6 | %19
 x6 | x6 | x6 | x6 | x6 | x4 ::[K:bass] x2 | x4[K:treble] x2 | x6 | x6 | x6 | x6 | x6 | x6 | x6 | %34
 x6 | x6 | x6 | x6 | x6 | x6 | x6 | x6 | x6 | x6 | x6 | x6 | x6 | x6 | x6 | x6 | x6 | x6 | x6 | %53
 x6 | x6 | x6 | x6 | x6 | x6 | x6 | x6 | x6 | x6 | x6 | x6 | x6 | x6 | x6 | x6 | x6 | x6 | x6 | %72
 x6 | x6 | x6 | x6 | x6 | x6 | x6 | x6 | x6 | x6 | x6 | x6 | x6 | x6 | x6 | x6 | x6 | x6 | x6 | %91
 x6 |!8va(! x6 | x6 | x6 | x6 | x6 | x6 | x6 | x6!8va)! | x6 | x6 | x6 | x6 | x6 | x6 | x6 | x6 | %108
 x6 | x6 | x6 | x6 | x6 | x6 | x6 | x6 | x6 | x6 | x6 | x6 | x6 | x6 | x6 | x6 | x6 | x6 | x6 | %127
 x6 | x6 | x6 | x6 | x6 | x6 | x6 | x6 | x6 | x6 | x2[K:bass] x4 | x6 | x4[K:treble] x2 | x6 | x6 | %142
!8va(! x6 | x6 | x6 | x6 | x6 | x6 | x6 |1 x6 :|2 x6!8va)! ||[K:D] x6 | x6 | x6 | x6 | x6 | x6 | %157
 x6 | x6 | x6 | x6 | x6 | x6 | x6 | A,4 A,2 | x6 | x6 | x6 | d2 z2 z2 | d4- d[Ac] | d2 z2 z2 | %171
 d4 e2 | x6 | x6 | x6 | x6 | c2 z2 z2 | x6 | c2 z2 z2 | x6 | x6 | x6 | x6 |: x6 | x6 | x6 | x6 | %187
 x6 | x6 | x6 | x6 | x6 | x6 | x6 | x6 | x6 | x6 | x6 | A4- A^G | [A-a]6 | A4- A^G | [Aa]6 | x6 | %203
 x6 | x6 | x6 | x6 | x6 | x6 |!8va(! x6 | x6 | x6 | x6 | x6 | x6 | x2!8va)! x4 | x6 |!8va(! x6 | %218
 x6 | x6 | x6 | x6 | x6 | x2!8va)! x4 | x6 :| x6 | x6 | x6 | x6 | x6 | x6 | x6 | x6 | x6 | x6 | %235
 x6 | x6 | x6 | x4 |:[K:F] x2 | x6 | x6 | x6 | x6 | x6 | x6 | x6 | x6 | x6 | x6 | x6 | x6 | x6 | %253
 x6 | x6 | x6 | x6 | x6 | x6 | x6 | x6 | x6 | x6 | x4 :|[K:bass] x2 | x4[K:treble] x2 | x6 | x6 | %268
 x6 | x6 | x6 | x6 | x6 | x6 | x6 | x6 | x6 | x6 | x6 | x6 | x6 | x6 | x6 | x6 | x6 | x6 | x6 | %287
 x6 | x6 | x6 | x6 | x6 | x6 | x6 | x6 | x6 | x6 | x6 | x6 | x6 | x6 | x6 | x6 | x6 | x6 | x6 | %306
 x6 | x6 | x6 | x6 | x6 | x6 | x6 | x6 | x6 | x6 | x6 | x6 | x6 | x6 | x6 | x6 | x6 | x6 | x6 | %325
 x6 | x6 | x6 | x6 | x6 | x6 | x6 | x6 | x6 | x6 |!8va(! x6 | x6 | x6 | x6!8va)! | x6 | x6 | x6 | %342
 x6 | x6 | x6 | x6 | x6 | x6 | x6 | x6 | x6 | x6 | x6 | x6 | x6 | x6 | x6 | x6 | x6 | x6 | x6 | %361
 x6 | x6 | x6 | x6 | x6 | x6 | x6 | x6 | x6 | x6 | x6 | x6 | x6 | x6 | x6 | x2[K:bass] x4 | x6 | %378
 x4[K:treble] x2 | x6 | x4!8va(! x2 | x6 | x6 | x6 | x6 | x6 | x6 | x6 | x6!8va)! | x6 | x6 | x6 | %392
 x6 ||!8va(! x6 | x6 | x2!8va)! x4 | x6 | x6 |] %398

